!!!COM: Edvard Grieg
!!!OTL: Butterfly
**kern	**dynam	**kern	**text	**dynam
*part2	*part2	*part1	*part1	*part1
*staff2	*	*staff1	*staff1	*
*clefF4	*	*clefG2	*	*
*k[f#c#g#]	*	*k[f#c#g#]	*	*
*M4/4	*	*M4/4	*	*
16r	[	8.ff#y^>L	.	]
16DL	.	.	.	.
16G#y	.	.	.	.
16BJ	.	16g#yJ	.	.
8f#y'>	.	16aL	.	.
.	.	16a#	.	.
8r	.	16b	.	.
.	.	16b#J	.	.
4r	.	16cc#yL	.	<
.	.	16dd	.	.
.	.	16dd#	.	.
.	.	16eeJ	.	.
16r	.	16aanL	.	>
16C#yL	.	16ee	.	.
16A	.	16cc#y	.	.
16eJ	.	16anJ	.	.
=2	=2	=2	=2	=2
16r	.	8.f##^>L	.	.
16AA#L	.	.	.	.
16E	.	.	.	.
16c#yJ	.	16eeJ	.	.
16r	.	8.g#y^>L	.	.
16BBL	.	.	.	.
16E	.	.	.	.
16dJ	.	16eeJ	.	.
16r	.	8.f##y^>L	.	.
16AA#yL	.	.	.	.
16E	.	.	.	.
16c#yJ	.	16eeJ	.	.
16r	.	8.g#y^>L	.	.
16BBL	.	.	.	.
16E	.	.	.	.
16dJ	.	16ee#J	.	.
=3	=3	=3	=3	=3
16r	.	8.ff#^>L	.	.
16DL	.	.	.	.
16G#y	.	.	.	.
16BJ	.	16g#yJ	.	.
8f#y'>	.	16aL	.	.
.	.	16a#	.	.
8r	.	16b	.	.
.	.	16b#J	.	.
4r	.	16cc#yL	.	.
.	.	16dd	.	.
.	.	16dd#	.	.
.	.	16eenJ	.	.
16r	.	16aanL	.	.
16C#yL	.	16ee	.	.
16An	.	16cc#y	.	.
16eJ	.	16anJ	.	.
*clefG2	*	*	*	*
=4	=4	=4	=4	=4
16r	.	8.ccc#y^>L	<	.
16AL	.	.	.	.
16d#	.	.	.	.
16f#yJ	.	16dd#J	.	.
8cc#y'>	.	16eeL	.	.
.	.	16ee#	.	.
8r	.	16ff#y	.	.
.	.	16ff##J	.	.
4r	.	16gg#yL	.	.
.	.	16aa	.	.
.	.	16aa#	.	.
.	.	16bbnJ	.	.
16r	.	16eeenL	.	.
16G#yL	.	16bb	.	.
16e	.	16gg#y	.	.
16bJ	.	16eenJ	.	.
*clefF4	*	*	*	*
=5	=5	=5	=5	=5
16r	.	8.bL	f	.
16BBL	.	.	.	.
16G#y	.	.	.	.
16eJ	.	16gg#yJ	.	.
4r	.	8.g#yL	.	.
.	.	16eeJ	>	.
16r	.	8.eL	.	.
16BBL	.	.	.	.
16Gn	.	.	.	.
16eJ	.	16cc#yJ	.	.
4r	.	8.c#yL	.	.
.	.	16a#J	.	.
=6	=6	=6	=6	=6
16r	.	8.cnL	.	.
16BBL	.	.	.	.
16F#y	.	.	.	.
16d#J	.	16anJ	.	.
4r	.	8.AL	.	.
.	.	16f#yJ	.	.
16r	.	8.G#yL	p	.
16EEL	.	.	.	.
16BBJ	.	.	.	.
16r	.	16eJ	.	.
4EEE'>	.	4r	.	.
=7:|!	=7:|!	=7:|!	=7:|!	=7:|!
*	*	*^	*	*
16r	.	8.gn^>L	4ryy	.	.
16BBL	.	.	.	.	.
16Gn	.	.	.	.	.
16dnJ	.	16bJ	.	.	.
4r	.	8dd^>L	16ddL	.	.
.	.	.	16ggn	.	.
.	.	8cc#^>J	16cc#	.	.
.	.	.	16ddJ 16gg	.	.
2r	.	8b^>L	16bL	<	.
.	.	.	16dd 16gg	.	.
.	.	8a^>	16a	.	.
.	.	.	16bJ 16dd	.	.
.	.	8gn^>	16gnL	.	.
.	.	.	16b 16dd	.	.
.	.	8f#y^>J	16f#y	.	.
.	.	.	16bJ 16dd	.	.
*	*	*v	*v	*	*
=8	=8	=8	=8	=8
16r	.	8.e#^>	.	.
16C#yL	.	.	.	.
16BJ	.	.	.	.
16r	.	16g# 16cc#y	.	.
16r	.	8.f#y^>	.	.
16C#yL	.	.	.	.
16c#yJ	.	.	.	.
16r	.	16a 16cc#y	.	.
16r	.	8.d#^>	.	.
16C#yL	.	.	.	.
16AJ	.	.	.	.
16r	.	16f#y 16cc#y	.	.
16r	.	8.e#y^>	.	.
16C#yL	.	.	.	.
16BJ	.	.	.	.
16r	.	16g#y 16cc#y	.	.
=9	=9	=9	=9	=9
16r	.	8.c#y^>	.	.
16FF#yL	.	.	.	.
16C#y	.	.	.	.
16AJ	.	16f#y 16a 16cc#y	.	.
4r	.	16dn	.	.
.	.	16f#y 16a 16cc#y	.	.
.	.	16en	.	.
.	.	16f#y 16a 16cc#y	.	.
16r	.	8.c#y^>	.	.
16FF#yL	.	.	.	.
16C#y	.	.	.	.
16BJ	.	16e# 16a 16cc#y	.	.
16r	.	8.c#y^>	.	.
16FF#yL	.	.	.	.
16C#y	.	.	.	.
16BJ	.	16e#y 16a 16cc#y	.	.
=10	=10	=10	=10	=10
*	*	*^	*	*
16r	.	4r	1c#y^>	.	.
16FF#yL	.	.	.	.	.
16C#y	.	.	.	.	.
16AJ	.	.	.	.	.
4r	.	16f#yL	.	.	.
.	.	16g#y	.	.	.
.	.	16a	.	.	.
.	.	16cc#yJ	.	.	.
16r	.	4r	.	.	.
16F#yL	.	.	.	.	.
16c#y	.	.	.	.	.
16aJ	.	.	.	.	.
4r	.	16ff#yL	.	.	.
.	.	16gg#y	.	.	.
.	.	16aa	.	.	.
.	.	16ccc#yJ	.	.	.
*	*	*v	*v	*	*
=11	=11	=11	=11	=11
16r	.	8.ccn^>	.	.
16EL	.	.	.	.
16cn	.	.	.	.
16gnJ	.	16ee	.	.
4r	.	16ggn^>	.	.
.	.	16cccn	.	.
.	.	16ff#y^>	.	.
.	.	16gg 16ccc	.	.
2r	.	16ee^>	<	.
.	.	16gg 16ccc	.	.
.	.	16dd^>	.	.
.	.	16ee 16gg	.	.
.	.	16cc^>	.	.
.	.	16ee 16gg	.	.
.	.	16b^>	.	.
.	.	16ee 16gg	.	.
=12	=12	=12	=12	=12
16r	.	8.a#^>	.	.
16F#yL	.	.	.	.
16eJ	.	.	.	.
16r	.	16cc# 16ff#y	.	.
16r	.	8.b^>	.	.
16F#yL	.	.	.	.
16f#yJ	.	.	.	.
16r	.	16dd 16ff#y	.	.
16r	.	8.g#^>	.	.
16F#yL	.	.	.	.
16dJ	.	.	.	.
16r	.	16b 16ff#y	.	.
16r	.	8.a#y^>	.	.
16F#yL	.	.	.	.
16eJ	.	.	.	.
16r	.	16cc#y 16ff#y	.	.
=13	=13	=13	=13	=13
16r	.	8.f#y^>	.	.
16BBL	.	.	.	.
16F#y	.	.	.	.
16dJ	.	16b 16dd 16ff#y	.	.
4r	.	16gn	.	.
.	.	16b 16dd 16ff#y	.	.
.	.	16an	.	.
.	.	16b 16dd 16ff#y	.	.
16r	.	8.f#y^>	.	.
16BBL	.	.	.	.
16F#y	.	.	.	.
16eJ	.	16a# 16dd 16ff#y	.	.
16r	.	8.f#y^>	.	.
16BBL	.	.	.	.
16F#y	.	.	.	.
16eJ	.	16a#y 16dd 16ff#y	.	.
=14	=14	=14	=14	=14
16r	.	8.f#y^>	pp	.
16BBL	.	.	.	.
16F#y	.	.	.	.
16d#J	.	16b 16dd# 16ff#y	.	.
4r	.	16g#	.	.
.	.	16b 16dd#y 16ff#y	.	.
.	.	16a#	.	.
.	.	16b 16dd#y 16ff#y	.	.
16r	.	8.f#y^>	.	.
16BBL	.	.	.	.
16F#y	.	.	.	.
16eJ	.	16a#y 16dd#y 16ff#y	.	.
16r	.	8.f#y^>	.	.
16BBL	.	.	.	.
16F#y	.	.	.	.
16eJ	.	16a#y 16dd#y 16ff#y	.	.
=15	=15	=15	=15	=15
*	*	*^	*	*
16r	.	4r	2f#y^>	.	.
16BBL	.	.	.	.	.
16F#y	.	.	.	.	.
16d#J	.	.	.	.	.
4r	.	16bL	.	.	.
.	.	16cc#y	.	.	.
.	.	16dd#	.	.	.
.	.	16ff#yJ	.	.	.
16r	.	4r	2f#y^>	.	.
16BBL	.	.	.	.	.
16F#y	.	.	.	.	.
16d#yJ	.	.	.	.	.
4r	.	16bL	.	.	.
.	.	16cc#y	.	.	.
.	.	16dd#y	.	.	.
.	.	16ff#yJ	.	.	.
=16	=16	=16	=16	=16	=16
16r	.	2ff#y^>	4r	.	.
16BBL	.	.	.	.	.
16F#y	.	.	.	.	.
16dnJ	.	.	.	.	.
4r	.	.	16ddnL	>	.
.	.	.	16cc#y	.	.
.	.	.	16b	.	.
.	.	.	16f#yJ	.	.
16r	.	2ff#y^>	4r	.	.
16BBL	.	.	.	.	.
16Gn	.	.	.	.	.
16dJ	.	.	.	.	.
4r	.	.	16ddL	.	.
.	.	.	16cc#y	.	.
.	.	.	16b	.	.
.	.	.	16gnJ	.	.
*	*	*v	*v	*	*
=17	=17	=17	=17	=17
16DD 16D	.	8.ff#y^>L	.	.
16G#	.	.	.	.
16B	.	.	.	.
16f#y	.	16g#J	.	.
4r	.	16aL	.	.
.	.	16a#	.	.
.	.	16b	.	.
.	.	16b#J	.	.
4r	.	16cc#yL	.	.
.	.	16dd	.	.
.	.	16dd#	.	.
.	.	16eeJ	.	.
16r	.	16aanL	.	.
16C#yL	.	16ee	.	.
16A	.	16cc#y	.	.
16eJ	.	16anJ	.	.
=18	=18	=18	=18	=18
16r	.	8.f##^>L	.	.
16AA#L	.	.	.	.
16E	.	.	.	.
16c#yJ	.	16eeJ	.	.
16r	.	8.g#y^>L	.	.
16BBL	.	.	.	.
16E	.	.	.	.
16dJ	.	16eeJ	.	.
16r	.	8.f##y^>L	.	.
16AA#yL	.	.	.	.
16E	.	.	.	.
16c#yJ	.	16eeJ	.	.
16r	.	8.g#y^>L	.	.
16BBL	.	.	.	.
16E	.	.	.	.
16dJ	.	16ee#J	.	.
=19	=19	=19	=19	=19
16r	.	8.ff#^>L	<	.
16DL	.	.	.	.
16G#y	.	.	.	.
16BJ	.	16g#yJ	.	.
8f#y'>	.	16aL	.	.
.	.	16a#	.	.
8r	.	16b	.	.
.	.	16b#J	.	.
4r	.	16cc#yL	.	.
.	.	16dd	.	.
.	.	16dd#	.	.
.	.	16eenJ	.	.
16r	.	16aanL	.	.
16C#yL	.	16ee	.	.
16An	.	16cc#y	.	.
16eJ	.	16anJ	.	.
=20	=20	=20	=20	=20
16r	.	8.ccc#y^>L	.	.
*clefG2	*	*	*	*
16AL	.	.	.	.
16d#	.	.	.	.
16f#yJ	.	16dd#J	.	.
8cc#y'>	.	16eeL	.	.
.	.	16ee#	.	.
8r	.	16ff#y	.	.
.	.	16ff##J	.	.
4r	.	16gg#yL	.	.
.	.	16aa	.	.
.	.	16aa#	.	.
.	.	16bbnJ	.	.
16r	.	16eeenL	.	.
16G#yL	.	16bb	.	.
16e	.	16gg#y	.	.
16bJ	.	16eenJ	.	.
=21	=21	=21	=21	=21
16r	.	8.fff#^>L	f	.
16dnL	.	.	.	.
16g#y	.	.	.	.
16bJ	.	16gg#yJ	.	.
8ff#y'>	.	16aanL	.	.
.	.	16aa#	.	.
8r	.	16bb	.	.
.	.	16bb#J	.	.
4r	.	16ccc#yL	.	.
.	.	16dddn	.	.
.	.	16ddd#	.	.
.	.	16eeeJ	.	.
16r	.	16aaanL	.	.
16c#yL	.	16eee	.	.
16a	.	16ccc#y	.	.
16eeJ	.	16aanJ	.	.
*clefF4	*	*	*	*
=22	=22	=22	=22	=22
16r	.	8.ee^>L	.	.
16EL	.	.	.	.
16c#y	.	.	.	.
16aJ	.	16ccc#yJ	.	.
4r	.	8.cc#y^>L	.	.
.	.	16aaJ	.	.
16r	.	8.a^>L	>	.
16EL	.	.	.	.
16cn	.	.	.	.
16aJ	.	16ff#yJ	.	.
4r	.	8.f#y^>L	.	.
.	.	16dd#J	.	.
=23	=23	=23	=23	=23
16r	.	8.fn^>L	.	.
16EL	.	.	.	.
16B	.	.	.	.
16g#yJ	.	16ddnJ	.	.
4r	.	8.d^>L	.	.
.	.	16bJ	.	.
16r	.	8.c#y^>L	p	.
16AAL	.	.	.	.
16EJ	.	.	.	.
16r	.	16aJ	.	.
4AAA'>	.	4r	.	.
=24	=24	=24	=24	=24
*	*	*^	*	*
!!Error: measure 24, staff 1 is underfilled: adding token 16ryy at end of measure to complete its duration.
16r	.	8.gnL	4ryy	.	.
16BBL	.	.	.	.	.
16Gn	.	.	.	.	.
16dJ	.	16bJ	.	.	.
4r	.	8dd^>L	16ddL	.	.
.	.	.	16ggn	.	.
.	.	8cc#y^>J	16cc	.	.
.	.	.	16ddJ 16gg	.	.
2r	.	8b^>L	16bL	.	.
.	.	.	16dd 16gg	.	.
.	.	8a^>	16a	.	.
.	.	.	16bJ 16dd	.	.
.	.	8g^>	16gL	.	.
.	.	.	16b 16dd	.	.
.	.	16f#y^>J	16f	.	.
.	.	16ryy	16bJ 16dd	.	.
*	*	*v	*v	*	*
=25	=25	=25	=25	=25
16r	.	8.e#^>	.	.
16C#yL	.	.	.	.
16BJ	.	.	.	.
16r	.	16g# 16cc#y	.	.
16r	.	8.f#y^>	.	.
16C#yL	.	.	.	.
16c#yJ	.	.	.	.
16r	.	16a 16cc#y	.	.
16r	.	8.d#^>	.	.
16C#yL	.	.	.	.
16AJ	.	.	.	.
16r	.	16f#y 16cc#y	.	.
16r	.	8.e#y^>	.	.
16C#yL	.	.	.	.
16BJ	.	.	.	.
16r	.	16g#y 16cc#y	.	.
=26	=26	=26	=26	=26
16r	.	8.c#y^>	.	.
16FF#yL	.	.	.	.
16C#y	.	.	.	.
16AJ	.	16f#y 16a 16cc#y	.	.
4r	.	16dn	.	.
.	.	16f#y 16a 16cc#y	.	.
.	.	16en	.	.
.	.	16f#y 16a 16cc#y	.	.
16r	.	8.c#y^>	.	.
16FF#yL	.	.	.	.
16C#y	.	.	.	.
16BJ	.	16e# 16a 16cc#y	.	.
16r	.	8.c#y^>	<	.
16FF#yL	.	.	.	.
16C#y	.	.	.	.
16BJ	.	16e#y 16a 16cc#y	.	.
=27	=27	=27	=27	=27
*	*	*^	*	*
16r	.	4r	1c#y^>	.	.
16FF#yL	.	.	.	.	.
16C#y	.	.	.	.	.
16AJ	.	.	.	.	.
4r	.	16f#yL	.	.	.
.	.	16g#y	.	.	.
.	.	16a	.	.	.
.	.	16cc#yJ	.	.	.
16r	.	4r	.	.	.
16F#yL	.	.	.	.	.
16c#y	.	.	.	.	.
16aJ	.	.	.	.	.
4r	.	16ff#yL	.	.	.
.	.	16gg#y	.	.	.
.	.	16aa	.	.	.
.	.	16ccc#yJ	.	.	.
=28	=28	=28	=28	=28	=28
16r	.	8.ccn^>L	4ryy	.	.
16EL	.	.	.	.	.
16cn	.	.	.	.	.
16gnJ	.	16eeJ	.	.	.
4r	.	8ggnL	8ggnL	.	.
.	.	8ff#yJ	16cccn	.	.
.	.	.	8ff#y	.	.
2r	.	8eeL	.	<	.
.	.	.	16ggJ 16ccc	.	.
.	.	8dd	8eeL	<	.
.	.	8cc	16gg 16ccc	.	.
.	.	.	8dd	.	.
.	.	8bJ	.	.	.
.	.	.	16eeJ 16gg	.	.
.	.	.	8ccL	.	.
.	.	.	16ee 16gg	.	.
.	.	.	8b	.	.
.	.	.	16eeJ 16gg	.	.
=29	=29	=29	=29	=29	=29
16r	.	8.a#^>	.	.	.
16F#yL	.	.	.	.	.
16eJ	.	.	.	.	.
16r	.	16cc# 16ff#y	.	.	.
16r	.	8.b^>	.	.	.
16F#yL	.	.	.	.	.
*	*	*v	*v	*	*
16f#yJ	.	.	.	.
16r	.	16dd 16ff#y	.	.
16r	.	8.g#^>	.	.
16F#yL	.	.	.	.
16dJ	.	.	.	.
16r	.	16b 16ff#y	.	.
16r	.	8.a#y^>	.	.
16F#yL	.	.	.	.
16eJ	.	.	.	.
16r	.	16cc#y 16ff#y	.	.
=30	=30	=30	=30	=30
16r	.	8.f#y^>	.	.
16BBL	.	.	.	.
16F#y	.	.	.	.
16dJ	.	16b 16dd 16ff#y	.	.
4r	.	16gn	.	.
.	.	16b 16dd 16ff#y	.	.
.	.	16an	.	.
.	.	16b 16dd 16ff#y	.	.
16r	.	8.f#y^>	.	.
16BBL	.	.	.	.
16F#y	.	.	.	.
16eJ	.	16a# 16dd 16ff#y	.	.
16r	.	8.f#y^>	.	.
16BBL	.	.	.	.
16F#y	.	.	.	.
16eJ	.	16a#y 16dd 16ff#y	.	.
=31	=31	=31	=31	=31
16r	.	8.f#y^>	pp	.
16BBL	.	.	.	.
16F#y	.	.	.	.
16d#J	.	16b 16dd# 16ff#y	.	.
4r	.	16g#	.	.
.	.	16b 16dd#y 16ff#y	.	.
.	.	16a#	.	.
.	.	16b 16dd#y 16ff#y	.	.
16r	.	8.f#y^>	.	.
16BBL	.	.	.	.
16F#y	.	.	.	.
16eJ	.	16a#y 16dd#y 16ff#y	.	.
16r	.	8.f#y^>	.	.
16BBL	.	.	.	.
16F#y	.	.	.	.
16eJ	.	16a#y 16dd#y 16ff#y	.	.
=32	=32	=32	=32	=32
*	*	*^	*	*
16r	.	4r	2f#y^>	.	.
16BBL	.	.	.	.	.
16F#y	.	.	.	.	.
16d#J	.	.	.	.	.
4r	.	16bL	.	.	.
.	.	16cc#y	.	.	.
.	.	16dd#	.	.	.
.	.	16ff#yJ	.	.	.
16r	.	4r	2f#y^>	.	.
16BBL	.	.	.	.	.
16F#y	.	.	.	.	.
16d#yJ	.	.	.	.	.
4r	.	16bL	.	.	.
.	.	16cc#y	.	.	.
.	.	16dd#y	.	.	.
.	.	16ff#yJ	.	.	.
=33	=33	=33	=33	=33	=33
16r	.	2ff#y^>	4r	.	.
16BBL	.	.	.	.	.
16F#y	.	.	.	.	.
16dnJ	.	.	.	.	.
4r	.	.	16ddnL	.	.
.	.	.	16cc#y	.	.
.	.	.	16b	.	.
.	.	.	16f#yJ	.	.
16r	.	2ff#y^>	4r	.	.
16BBL	.	.	.	.	.
16Gn	.	.	.	.	.
16dJ	.	.	.	.	.
4r	.	.	16ddL	.	.
.	.	.	16cc#y	.	.
.	.	.	16b	.	.
.	.	.	16gnJ	.	.
*	*	*v	*v	*	*
=34	=34	=34	=34	=34
16DD 16D	.	8.ff#y^>L	.	.
16G#	.	.	.	.
16B	.	.	.	.
16f#y	.	16g#J	.	.
4r	.	16aL	.	.
.	.	16a#	.	.
.	.	16b	.	.
.	.	16b#J	.	.
4r	.	16cc#yL	.	.
.	.	16dd	.	.
.	.	16dd#	.	.
.	.	16eeJ	.	.
16r	.	16aanL	.	.
16C#yL	.	16ee	.	.
16A	.	16cc#y	.	.
16eJ	.	16anJ	.	.
=35	=35	=35	=35	=35
16r	.	8.f##^>L	.	.
16AA#L	.	.	.	.
16E	.	.	.	.
16c#yJ	.	16eeJ	.	.
16r	.	8.g#y^>L	.	.
16BBL	.	.	.	.
16E	.	.	.	.
16dJ	.	16eeJ	.	.
16r	.	8.f##y^>L	.	.
16AA#yL	.	.	.	.
16E	.	.	.	.
16c#yJ	.	16eeJ	.	.
16r	.	8.g#y^>L	.	.
16BBL	.	.	.	.
16E	.	.	.	.
16dJ	.	16ee#J	.	.
=36	=36	=36	=36	=36
16r	.	8.ff#^>L	.	.
16DL	.	.	.	.
16G#y	.	.	.	.
16BJ	.	16g#yJ	<	.
8f#y	.	16aL	.	.
.	.	16a#	.	.
8r	.	16b	.	.
.	.	16b#J	.	.
4r	.	16cc#yL	.	.
.	.	16dd	.	.
.	.	16dd#	.	.
.	.	16eenJ	.	.
16r	.	16aanL	.	.
16C#yL	.	16ee	.	.
16An	.	16cc#y	.	.
16eJ	.	16anJ	.	.
=37	=37	=37	=37	=37
16r	.	8.ccc#y^>L	.	.
*clefG2	*	*	*	*
16AL	.	.	.	.
16d#	.	.	.	.
16f#yJ	.	16dd#J	.	.
8cc#y'>	.	16eeL	.	.
.	.	16ee#	.	.
8r	.	16ff#y	.	.
.	.	16ff##J	.	.
4r	.	16gg#yL	.	.
.	.	16aa	.	.
.	.	16aa#	.	.
.	.	16bbnJ	.	.
16r	.	16eeenL	.	.
16G#yL	.	16bb	.	.
16e	.	16gg#y	.	.
16bJ	.	16eenJ	.	.
=38	=38	=38	=38	=38
16r	.	8.fff#^>L	f	.
16dnL	.	.	.	.
16g#y	.	.	.	.
16bJ	.	16gg#yJ	.	.
8ff#y'>	.	16aanL	.	.
.	.	16aa#	.	.
8r	.	16bb	.	.
.	.	16bb#J	.	.
4r	.	16ccc#yL	<	.
.	.	16dddn	.	.
.	.	16ddd#	.	.
.	.	16eeeJ	.	.
16r	.	16aaanL	.	.
16c#yL	.	16eee	.	.
16a	.	16ccc#y	.	.
16eeJ	.	16aanJ	.	.
*clefF4	*	*	*	*
=39	=39	=39	=39	=39
16r	.	8.ee^>L	ff	.
16EL	.	.	.	.
16c#y	.	.	.	.
16aJ	.	16ccc#yJ	.	.
4r	.	8.cc#y^>L	.	.
.	.	16aaJ	.	.
16r	.	8.a^>L	.	.
16EL	.	.	.	.
16cn	.	.	.	.
16aJ	.	16ff#yJ	.	.
4r	.	8.f#y^>L	.	.
.	.	16dd#J	.	.
=40	=40	=40	=40	=40
16r	.	8.fn^>L	.	.
16EL	.	.	.	.
16B	.	.	.	.
16g#yJ	.	16ddnJ	.	.
4r	.	8.d^>L	.	.
.	.	16bJ	.	.
2r	.	2r	.	.
=41	=41	=41	=41	=41
16r	.	8.e^>L	>	.
16EEL	.	.	.	.
16C#y	.	.	.	.
16AJ	.	16cc#yJ	.	.
4r	.	8.c#y^>L	.	.
.	.	16aJ	.	.
16r	.	8.A^>L	.	.
16EEL	.	.	.	.
16Cn	.	.	.	.
16AJ	.	16f#J	.	.
*	*	*clefF4	*	*
4r	.	8.F#y^>L	.	.
.	.	16d#J	.	.
=42	=42	=42	=42	=42
16r	.	8.Fn^>L	p	.
16EEL	.	.	.	.
16BB	.	.	.	.
16G#yJ	.	16dnJ	.	.
4r	.	8.D^>L	.	.
.	.	16BJ	.	.
16r	.	8.C#y^>L	pp	.
16AAAL	.	.	.	.
16EEJ	.	.	.	.
16r	.	16AJ	.	.
4AAAA'>	.	4r	.	.
==	==	==	==	==
*-	*-	*-	*-	*-
!!!RDF**kern: > = above
